assets/images/index/item-5.svg

<svg width="86" height="94" viewBox="0 0 86 94" fill="none" xmlns="http://www.w3.org/2000/svg">
<path d="M57.6485 74.0462C62.2258 63.5617 61.0148 53.0206 54.9436 50.5022C48.8723 47.9837 40.2399 54.4416 35.6626 64.9261C31.0852 75.4107 32.2962 85.9518 38.3674 88.4702C44.4387 90.9887 53.0711 84.5308 57.6485 74.0462Z" stroke="#0000BD" stroke-miterlimit="10" stroke-linecap="round" stroke-linejoin="round"/>
<path d="M35.6157 72.9771C36.086 70.3181 36.9326 67.5673 38.1554 65C38.9079 65.4585 41.7299 67.0172 42.3883 67.384C41.7299 68.7593 41.4477 70.2264 41.5418 71.6934C41.8239 74.9943 44.4578 76.7364 47.2797 75.5444C48.7848 74.9026 50.0076 73.7106 50.8542 72.1519L50.9482 72.2436L54.993 74.5358C54.993 74.5358 54.993 74.5358 55.0871 74.6275C52.9236 79.1204 49.8195 82.9714 46.4331 84.9886C40.1308 88.8396 35.1453 85.0803 35.4275 76.553C35.2394 75.3611 35.4275 74.1691 35.6157 72.9771Z" stroke="#DF0112" stroke-miterlimit="10" stroke-linecap="round" stroke-linejoin="round"/>
<path d="M48.9057 70.4187C49.6788 68.6479 49.2979 66.7944 48.0549 66.2788C46.812 65.7632 45.1777 66.7807 44.4046 68.5515C43.6316 70.3223 44.0125 72.1758 45.2554 72.6914C46.4983 73.207 48.1326 72.1895 48.9057 70.4187Z" stroke="#DF0112" stroke-miterlimit="10" stroke-linecap="round" stroke-linejoin="round"/>
<path d="M31.8914 85.3593L29.2576 87.5598L27 85.0842L28.5991 83.6172" stroke="#DF0112" stroke-miterlimit="10" stroke-linecap="round" stroke-linejoin="round"/>
<path d="M10.1245 72.6113C19.531 77.9293 37.9677 88.2903 37.9677 88.2903" stroke="#0000BD" stroke-miterlimit="10" stroke-linecap="round" stroke-linejoin="round"/>
<path d="M14.3571 34.4668C7.20818 39.143 1.47021 50.0541 1.47021 59.5898C1.47021 64.9996 3.35151 68.8505 6.26753 70.4093C6.36159 70.5009 6.54972 70.5926 6.73785 70.6843" stroke="#0000BD" stroke-miterlimit="10" stroke-linecap="round" stroke-linejoin="round"/>
<path d="M55.1812 50.6047C55.1812 50.6047 52.1711 48.9543 48.0322 46.5703" stroke="#0000BD" stroke-miterlimit="10" stroke-linecap="round" stroke-linejoin="round"/>
<path d="M47.4683 34.7427C47.4683 34.7427 73.9946 19.7973 77.1928 18.0552L84.5298 26.3072L47.9386 46.6624" stroke="#0000BD" stroke-miterlimit="10" stroke-linecap="round" stroke-linejoin="round"/>
<path d="M45.5349 40.5937L43.4884 41.5911L42 38.2998L45.0698 36.7041L46 38.6988" stroke="#DF0112" stroke-miterlimit="10" stroke-linecap="round" stroke-linejoin="round"/>
<path d="M47.9382 46.6627L42.4824 49.6885L47.1857 34.8345" stroke="#0000BD" stroke-miterlimit="10" stroke-linecap="round" stroke-linejoin="round"/>
<path d="M27.056 24.106L11.3472 32.9082L16.2386 17.6877" stroke="#0000BD" stroke-miterlimit="10" stroke-linecap="round" stroke-linejoin="round"/>
<path d="M16.2383 18.0552L47.1857 34.8345" stroke="#0000BD" stroke-miterlimit="10" stroke-linecap="round" stroke-linejoin="round"/>
<path d="M15.5803 35.2014L11.4414 32.9084" stroke="#0000BD" stroke-miterlimit="10" stroke-linecap="round" stroke-linejoin="round"/>
<path d="M31.8532 44.0039L18.9663 37.0344" stroke="#0000BD" stroke-miterlimit="10" stroke-linecap="round" stroke-linejoin="round"/>
<path d="M42.4825 49.6877L34.2988 45.2866" stroke="#0000BD" stroke-miterlimit="10" stroke-linecap="round" stroke-linejoin="round"/>
<path d="M77.0985 18.0544C77.0985 18.0544 48.6909 2.74212 45.5867 1C42.7648 2.65043 16.3325 17.5043 16.3325 17.5043" stroke="#0000BD" stroke-miterlimit="10" stroke-linecap="round" stroke-linejoin="round"/>
<path d="M22.0208 44.6047L19.2842 46.7012L21.4351 49.3689L24.1717 47.2724L22.0208 44.6047Z" stroke="#DF0112" stroke-miterlimit="10" stroke-linecap="round" stroke-linejoin="round"/>
<path d="M12.7587 46.1079L9.62451 44.6367L8.12802 47.7024L11.2622 49.1735L12.7587 46.1079Z" stroke="#DF0112" stroke-miterlimit="10" stroke-linecap="round" stroke-linejoin="round"/>
<path d="M6.92632 70.7778L8.61949 69.4941L10.783 72.1532L8.0551 74.1704L5.8916 71.603L6.92632 70.7778Z" stroke="#DF0112" stroke-miterlimit="10" stroke-linecap="round" stroke-linejoin="round"/>
<path d="M15.981 34.1243L15.1831 37.4277L18.571 38.2054L19.3689 34.902L15.981 34.1243Z" stroke="#DF0112" stroke-miterlimit="10" stroke-linecap="round" stroke-linejoin="round"/>
<path d="M31.4578 55.2738L28 55.6602L28.3964 59.0306L31.8542 58.6442L31.4578 55.2738Z" stroke="#DF0112" stroke-miterlimit="10" stroke-linecap="round" stroke-linejoin="round"/>
<path d="M12.622 79.841L11.603 83.0859L14.9311 84.079L15.9501 80.8341L12.622 79.841Z" stroke="#0000BD" stroke-miterlimit="10" stroke-linecap="round" stroke-linejoin="round"/>
<path d="M33.7348 47.5789L30.2544 44.6448L34.5814 43.2695L33.7348 47.5789Z" stroke="#0000BD" stroke-miterlimit="10" stroke-linecap="round" stroke-linejoin="round"/>
<path d="M21.505 72.1045L20 67.9785L24.4211 68.712L21.505 72.1045Z" stroke="#0000BD" stroke-miterlimit="10" stroke-linecap="round" stroke-linejoin="round"/>
<path d="M12.3818 59.6809V55.2793L16.3326 57.4801L12.3818 59.6809Z" stroke="#0000BD" stroke-miterlimit="10" stroke-linecap="round" stroke-linejoin="round"/>
</svg>

<svg width="86" height="94" fill="none" xmlns="http://www.w3.org/2000/svg"><path d="M57.648 74.046c4.578-10.484 3.367-21.025-2.704-23.544-6.072-2.518-14.704 3.94-19.281 14.424-4.578 10.485-3.367 21.026 2.704 23.544 6.072 2.519 14.704-3.94 19.282-14.424z" stroke="#0000BD" stroke-miterlimit="10" stroke-linecap="round" stroke-linejoin="round"/><path d="M35.616 72.977A31.498 31.498 0 0138.156 65c.752.459 3.574 2.017 4.232 2.384a8.644 8.644 0 00-.846 4.31c.282 3.3 2.916 5.042 5.738 3.85 1.505-.641 2.728-1.833 3.574-3.392l.094.092 4.045 2.292.094.091c-2.163 4.493-5.268 8.344-8.654 10.362-6.302 3.85-11.288.091-11.005-8.436-.189-1.192 0-2.384.188-3.576z" stroke="#DF0112" stroke-miterlimit="10" stroke-linecap="round" stroke-linejoin="round"/><path d="M48.906 70.419c.773-1.771.392-3.625-.851-4.14-1.243-.516-2.877.502-3.65 2.273-.773 1.77-.392 3.624.85 4.14 1.243.515 2.878-.502 3.65-2.273zM31.891 85.36l-2.633 2.2L27 85.084l1.6-1.467" stroke="#DF0112" stroke-miterlimit="10" stroke-linecap="round" stroke-linejoin="round"/><path d="M10.124 72.611c9.407 5.318 27.844 15.68 27.844 15.68M14.357 34.467C7.208 39.143 1.47 50.054 1.47 59.59c0 5.41 1.882 9.26 4.798 10.82.094.09.282.183.47.274m48.443-20.079s-3.01-1.65-7.149-4.035" stroke="#0000BD" stroke-miterlimit="10" stroke-linecap="round" stroke-linejoin="round"/><path d="M47.468 34.743s26.527-14.946 29.725-16.688l7.337 8.252-36.591 20.355" stroke="#0000BD" stroke-miterlimit="10" stroke-linecap="round" stroke-linejoin="round"/><path d="M45.535 40.594l-2.047.997L42 38.3l3.07-1.596L46 38.7" stroke="#DF0112" stroke-miterlimit="10" stroke-linecap="round" stroke-linejoin="round"/><path d="M47.938 46.663l-5.456 3.026 4.704-14.855m-20.13-10.728l-15.709 8.802 4.892-15.22m-.001.367l30.948 16.78m-31.606.366l-4.139-2.293m20.412 11.096l-12.887-6.97m23.517 12.654l-8.184-4.401m42.8-27.233S48.69 2.742 45.587 1c-2.822 1.65-29.255 16.504-29.255 16.504" stroke="#0000BD" stroke-miterlimit="10" stroke-linecap="round" stroke-linejoin="round"/><path d="M22.02 44.605L19.285 46.7l2.151 2.668 2.737-2.097-2.151-2.667zm-9.261 1.503l-3.134-1.471-1.497 3.065 3.134 1.471 1.497-3.065zm-5.833 24.67l1.693-1.284 2.164 2.66-2.728 2.016-2.163-2.567 1.034-.825zm9.055-36.654l-.798 3.304 3.388.777.798-3.303-3.388-.778zm15.477 21.15L28 55.66l.396 3.37 3.458-.386-.396-3.37z" stroke="#DF0112" stroke-miterlimit="10" stroke-linecap="round" stroke-linejoin="round"/><path d="M12.622 79.841l-1.019 3.245 3.328.993 1.02-3.245-3.329-.993zm21.113-32.262l-3.48-2.934 4.326-1.376-.846 4.31zm-12.23 24.526L20 67.978l4.421.734-2.916 3.392zM12.382 59.68v-4.4l3.95 2.2-3.95 2.2z" stroke="#0000BD" stroke-miterlimit="10" stroke-linecap="round" stroke-linejoin="round"/></svg>
